assets/printer/printer-fill.svg

<svg id="Raw" xmlns="http://www.w3.org/2000/svg" viewBox="0 0 256 256">
  <rect width="256" height="256" fill="none"/>
  <path d="M210.66064,72h-10.6665V40a8.00008,8.00008,0,0,0-8-8h-128a8.00008,8.00008,0,0,0-8,8V72H45.32764c-13.96875,0-25.3335,10.7666-25.3335,24v80a8.00008,8.00008,0,0,0,8,8h28v36a8.00008,8.00008,0,0,0,8,8h128a8.00008,8.00008,0,0,0,8-8V184h28a8.00008,8.00008,0,0,0,8-8V96C235.99414,82.7666,224.62939,72,210.66064,72ZM71.99414,48h112V72h-112Zm112,164h-112V160h112Zm4-84a12,12,0,1,1,12-12A12,12,0,0,1,187.99414,128Z"/>
</svg>

<svg xmlns="http://www.w3.org/2000/svg" viewBox="0 0 256 256"><rect width="256" height="256" fill="none"/><path d="M210.7,72H200V40a8,8,0,0,0-8-8H64a8,8,0,0,0-8,8V72H45.3C31.4,72,20,82.8,20,96v80a8,8,0,0,0,8,8H56v36a8,8,0,0,0,8,8H192a8,8,0,0,0,8-8V184h28a8,8,0,0,0,8-8V96C236,82.8,224.6,72,210.7,72ZM72,48H184V72H72ZM184,212H72V160H184Zm4-84a12,12,0,1,1,12-12A12,12,0,0,1,188,128Z"/></svg>
